assets/images/integrationicons/certinia-icon-square.svg

<svg  viewBox="0 0 150 150" fill="none" xmlns="http://www.w3.org/2000/svg">
<g clip-path="url(#clip0_1_2)">
<path d="M150 0H0V150H150V0Z" fill="black"/>
<path d="M112.592 103.01L109.644 100.43C103.194 109.091 94.7175 113.698 85.5036 113.698C69.1032 113.698 58.5994 98.2188 58.5994 74.0786C58.5994 49.9386 69.4718 33.9067 85.3192 33.9067C94.3489 33.9067 103.194 39.0664 106.695 46.806C104.853 45.1476 102.457 44.2262 99.5086 44.2262C93.4277 44.2262 88.8205 48.6486 88.8205 54.7297C88.8205 60.6265 93.6116 65.4176 99.6929 65.4176C106.327 65.4176 111.118 59.8895 111.118 52.1498C111.118 39.0664 97.1128 28.9313 78.6854 28.9313C53.4397 28.9313 34.8281 48.6486 34.8281 74.6316C34.8281 100.798 53.8083 119.595 79.7913 119.595C93.7959 119.595 104.853 114.066 112.592 103.01Z" fill="white"/>
</g>
<defs>
<clipPath id="clip0_1_2">
<rect width="100%" height="100%" fill="white"/>
</clipPath>
</defs>
</svg>

<svg xmlns="http://www.w3.org/2000/svg" fill="none" viewBox="0 0 150 150"><g clip-path="url(#a)"><path fill="#000" d="M150 0H0v150h150z"/><path fill="#fff" d="m112.592 103.01-2.948-2.58c-6.45 8.661-14.927 13.268-24.14 13.268-16.4 0-26.905-15.48-26.905-39.62s10.873-40.171 26.72-40.171c9.03 0 17.875 5.16 21.376 12.899-1.842-1.658-4.238-2.58-7.186-2.58-6.081 0-10.689 4.423-10.689 10.504 0 5.897 4.792 10.688 10.873 10.688 6.634 0 11.425-5.529 11.425-13.268 0-13.084-14.005-23.219-32.433-23.219-25.245 0-43.857 19.718-43.857 45.7 0 26.167 18.98 44.964 44.963 44.964 14.005 0 25.062-5.529 32.801-16.585"/></g><defs><clipPath id="a"><rect width="100%" height="100%" fill="#fff"/></clipPath></defs></svg>
